build/logo/UtariOutline.svg

<svg xmlns="http://www.w3.org/2000/svg" fill="none" viewBox="0 0 24 24" focusable="false"><path d="M0 0H24V24H0z"/><path fill="#74767B" fill-rule="evenodd" d="M12.6486 3.0001C12.6486 2.64111 12.3576 2.3501 11.9986 2.3501C11.6396 2.3501 11.3486 2.64111 11.3486 3.0001L11.3486 5.35829C9.71095 5.65643 8.45814 7.05813 8.38877 8.76483L5.73211 13.3663C5.40897 13.1133 5.09759 12.838 4.80005 12.5405C4.54621 12.2866 4.13465 12.2866 3.88081 12.5405C3.62697 12.7943 3.62697 13.2059 3.88081 13.4597C4.26046 13.8394 4.66008 14.1869 5.07629 14.5022L4.76519 15.0411C4.3176 15.8163 4.29166 16.7651 4.69622 17.5637L6.13007 20.3939C6.23806 20.6071 6.45428 20.7438 6.69315 20.7499C6.93201 20.7561 7.15499 20.6307 7.27382 20.4234L9.49546 16.5478C11.1441 16.9146 12.8579 16.9145 14.5065 16.5474L16.7284 20.4234C16.8472 20.6307 17.0702 20.7561 17.309 20.7499C17.5479 20.7438 17.7641 20.6071 17.8721 20.3939L19.306 17.5637C19.7105 16.7651 19.6846 15.8163 19.237 15.0411L18.9253 14.5011C19.341 14.1861 19.7401 13.8389 20.1193 13.4597C20.3731 13.2059 20.3731 12.7943 20.1193 12.5405C19.8655 12.2866 19.4539 12.2866 19.2001 12.5405C18.903 12.8376 18.5921 13.1125 18.2694 13.3652L15.6115 8.76157C15.5407 7.05524 14.2868 5.65443 12.6486 5.35771L12.6486 3.0001ZM12.0002 6.59971C10.722 6.59971 9.68574 7.63594 9.68574 8.91419C9.68574 10.1924 10.722 11.2287 12.0002 11.2287C13.2785 11.2287 14.3147 10.1924 14.3147 8.91419C14.3147 7.63594 13.2785 6.59971 12.0002 6.59971ZM13.5119 12.1983C14.2261 11.869 14.8146 11.3136 15.1856 10.6238L18.1112 15.6911C18.3392 16.086 18.3524 16.5694 18.1463 16.9762L17.257 18.7316L13.5119 12.1983ZM12.0002 12.5287C11.9339 12.5287 11.8679 12.5269 11.8024 12.5234L10.1768 15.3592C11.3824 15.5775 12.6197 15.5774 13.8252 15.3588L12.1997 12.5233C12.1337 12.5269 12.0672 12.5287 12.0002 12.5287ZM8.81568 10.6254C9.18696 11.3149 9.77563 11.87 10.4899 12.199L6.74521 18.7316L5.85589 16.9762C5.64979 16.5694 5.663 16.086 5.89102 15.6911L8.81568 10.6254Z"/></svg>

<svg xmlns="http://www.w3.org/2000/svg" fill="none" viewBox="0 0 24 24" focusable="false"><path fill="#74767B" fill-rule="evenodd" d="M12.64 3c0-.36-.29-.65-.65-.65s-.65.29-.65.65v2.35c-1.63.3-2.89 1.7-2.96 3.41l-2.65 4.6c-.33-.25-.64-.53-.93-.82a.64.64 0 0 0-.92 0c-.26.25-.26.66 0 .91.38.38.78.73 1.19 1.05l-.31.54a2.65 2.65 0 0 0-.07 2.52l1.43 2.83c.11.21.33.35.57.35.24.01.46-.11.58-.32l2.22-3.88c1.65.37 3.36.37 5.01 0l2.22 3.88c.12.21.35.33.58.32.24 0 .46-.14.57-.35l1.43-2.83c.41-.8.38-1.75-.07-2.52l-.31-.54c.42-.32.82-.67 1.19-1.05.26-.25.26-.66 0-.91a.63.63 0 0 0-.91 0c-.3.29-.61.57-.94.82l-2.65-4.6a3.626 3.626 0 0 0-2.97-3.41zM12 6.59c-1.28 0-2.32 1.04-2.32 2.32s1.04 2.31 2.32 2.31c1.27 0 2.31-1.03 2.31-2.31A2.32 2.32 0 0 0 12 6.59m1.51 5.6c.71-.33 1.3-.88 1.67-1.57l2.93 5.07c.22.39.24.87.03 1.28l-.89 1.76zm-1.51.33h-.2l-1.63 2.83c1.21.22 2.44.22 3.65 0l-1.63-2.83zm-3.19-1.9c.37.69.96 1.25 1.67 1.57l-3.74 6.54-.89-1.76c-.21-.41-.19-.89.04-1.28z"/></svg>
